app/content/themes/irontheme/images/general/remove.svg

<svg width="28" height="28" viewBox="0 0 28 28" fill="none" xmlns="http://www.w3.org/2000/svg">
<path d="M18.9296 9.04252C18.8167 8.92927 18.6633 8.86563 18.5033 8.86563C18.3433 8.86563 18.1901 8.92927 18.0772 9.04252L13.9831 13.1362L9.67769 8.83078C9.44228 8.59537 9.06046 8.59537 8.82524 8.83078C8.58983 9.06639 8.58983 9.44801 8.82524 9.68361L13.1307 13.989L8.82524 18.2943C8.71198 18.4071 8.64835 18.5607 8.64835 18.7208C8.64835 18.8806 8.71198 19.0338 8.82524 19.1471C8.93868 19.2611 9.09361 19.3244 9.2544 19.3223C9.41481 19.3215 9.56879 19.2588 9.68394 19.1471L13.9894 14.8417L18.083 18.9354C18.1965 19.0496 18.3514 19.1128 18.5124 19.1107C18.6728 19.11 18.8268 19.0471 18.9417 18.9354C19.055 18.8223 19.1186 18.6689 19.1186 18.509C19.1186 18.3492 19.055 18.1956 18.9417 18.0827L14.8479 13.989L18.9417 9.89516C19.1683 9.65407 19.1628 9.27699 18.9296 9.04252Z" fill="#D90017"/>
<path d="M14.0013 1.00004C8.74286 0.999091 4.00183 4.16646 1.98955 9.02472C-0.0223478 13.8832 1.09051 19.4751 4.80996 23.1923C9.8864 28.2687 18.1166 28.2687 23.1928 23.1923C28.2691 18.1162 28.2691 9.88607 23.1928 4.80964C20.7605 2.36346 17.4509 0.991705 14.0013 1.00004ZM22.3402 22.3399C17.7446 26.9356 10.2642 26.9356 5.6626 22.3399C1.05851 17.7348 1.05888 10.2692 5.66393 5.66436C10.2686 1.06007 17.7342 1.06007 22.339 5.66436C26.9437 10.2692 26.9445 17.7348 22.3402 22.3399Z" fill="#D90017"/>
<path d="M18.9296 9.04252C18.8167 8.92927 18.6633 8.86563 18.5033 8.86563C18.3433 8.86563 18.1901 8.92927 18.0772 9.04252L13.9831 13.1362L9.67769 8.83078C9.44228 8.59537 9.06046 8.59537 8.82524 8.83078C8.58983 9.06639 8.58983 9.44801 8.82524 9.68361L13.1307 13.989L8.82524 18.2943C8.71198 18.4071 8.64835 18.5607 8.64835 18.7208C8.64835 18.8806 8.71198 19.0338 8.82524 19.1471C8.93868 19.2611 9.09361 19.3244 9.2544 19.3223C9.41481 19.3215 9.56879 19.2588 9.68394 19.1471L13.9894 14.8417L18.083 18.9354C18.1965 19.0496 18.3514 19.1128 18.5124 19.1107C18.6728 19.11 18.8268 19.0471 18.9417 18.9354C19.055 18.8223 19.1186 18.6689 19.1186 18.509C19.1186 18.3492 19.055 18.1956 18.9417 18.0827L14.8479 13.989L18.9417 9.89516C19.1683 9.65407 19.1628 9.27699 18.9296 9.04252Z" stroke="#D90017" stroke-width="0.5"/>
<path d="M14.0013 1.00004C8.74286 0.999091 4.00183 4.16646 1.98955 9.02472C-0.0223478 13.8832 1.09051 19.4751 4.80996 23.1923C9.8864 28.2687 18.1166 28.2687 23.1928 23.1923C28.2691 18.1162 28.2691 9.88607 23.1928 4.80964C20.7605 2.36346 17.4509 0.991705 14.0013 1.00004ZM22.3402 22.3399C17.7446 26.9356 10.2642 26.9356 5.6626 22.3399C1.05851 17.7348 1.05888 10.2692 5.66393 5.66436C10.2686 1.06007 17.7342 1.06007 22.339 5.66436C26.9437 10.2692 26.9445 17.7348 22.3402 22.3399Z" stroke="#D90017" stroke-width="0.5"/>
</svg>

<svg width="28" height="28" viewBox="0 0 28 28" fill="none" xmlns="http://www.w3.org/2000/svg"><path d="M18.93 9.043a.602.602 0 00-.853 0l-4.094 4.093-4.305-4.305a.603.603 0 10-.853.853l4.306 4.305-4.306 4.305a.602.602 0 00.43 1.028c.16 0 .314-.063.429-.175l4.305-4.305 4.094 4.093a.594.594 0 00.43.176.602.602 0 00.43-1.028l-4.095-4.094 4.094-4.094a.613.613 0 00-.012-.852z" fill="#D90017"/><path d="M14.001 1A12.999 12.999 0 004.81 23.192c5.076 5.077 13.307 5.077 18.383 0 5.076-5.076 5.076-13.306 0-18.382A12.918 12.918 0 0014 1zm8.34 21.34c-4.596 4.596-12.077 4.596-16.678 0-4.604-4.605-4.604-12.07 0-16.676 4.606-4.604 12.071-4.604 16.676 0 4.605 4.605 4.606 12.07.001 16.676z" fill="#D90017"/><path d="M18.93 9.043a.602.602 0 00-.853 0l-4.094 4.093-4.305-4.305a.603.603 0 10-.853.853l4.306 4.305-4.306 4.305a.602.602 0 00.43 1.028c.16 0 .314-.063.429-.175l4.305-4.305 4.094 4.093a.594.594 0 00.43.176.602.602 0 00.43-1.028l-4.095-4.094 4.094-4.094a.613.613 0 00-.012-.852z" stroke="#D90017" stroke-width=".5"/><path d="M14.001 1A12.999 12.999 0 004.81 23.192c5.076 5.077 13.307 5.077 18.383 0 5.076-5.076 5.076-13.306 0-18.382A12.918 12.918 0 0014 1zm8.34 21.34c-4.596 4.596-12.077 4.596-16.678 0-4.604-4.605-4.604-12.07 0-16.676 4.606-4.604 12.071-4.604 16.676 0 4.605 4.605 4.606 12.07.001 16.676z" stroke="#D90017" stroke-width=".5"/></svg>
